X:442
T:The Old Spinning Wheel
C:Traditional
N:Transcribed by Larry Tanner 
R:bluegrass
L:1/8
Q:1/4=215
M:4/4
K:C
z4 CD EF | "C"G7/2^d/ e2 c2 | G4 EF GE | "G"FE D4 DE | D4 DD DE | F4 d2 B2 | G4 GA FG | 
"C"E6 EF | E4 CD EF | "C"G7/2^d/ e2 c2 | G4 EF GE | "G"FE D4 DE | D4 DD DE | F4 d2 B2 | 
G4 GA BG | "C"c3c c2 B2 | "C7"_B4 Bd cB | "F"A4 A3c | d2 c2 B2 A2 | "C"G2 c2 E3G | 
E4 CD EF | G4 G3G | A2 G2 F2 E2 | "G"D2 cd Bc AB | G4 CD EF | "C"G7/2^d/ e2 c2 | 
G4 EF GE | "G"FE D4 DE | D4 DD DE | F4 d2 B2 | G4 GA BG | "C"c6 cd | c8 | 


